svg/color/adbeon.svg

<svg width="40" height="40" viewBox="0 0 40 40" fill="none" xmlns="http://www.w3.org/2000/svg">
<g clip-path="url(#clip0_821_4024)">
<path d="M20 0C31.0457 0 40 8.9543 40 20C40 31.0457 31.0457 40 20 40C8.95431 40 7.90517e-06 31.0457 0 20C6.58765e-07 8.95431 8.95431 1.97595e-06 20 0Z" fill="#FFCCCC"/>
<path d="M26 6C30.4183 6 34 9.58172 34 14V26C34 30.4183 30.4183 34 26 34H14C9.58172 34 6 30.4183 6 26V14C6 9.58172 9.58172 6 14 6H26Z" fill="#FF0000"/>
<path d="M17.4377 10.8333H22.6453L30 28.5557H24.4958L19.8458 16.7882L16.7734 24.5106H20.427L21.8861 28.5557H10L17.4377 10.8333Z" fill="white"/>
</g>
<defs>
<clipPath id="clip0_821_4024">
<rect width="40" height="40" fill="white"/>
</clipPath>
</defs>
</svg>

<svg xmlns="http://www.w3.org/2000/svg" width="40" height="40" fill="none" viewBox="0 0 40 40"><g clip-path="url(#adbeon_svg-a)"><path fill="#FCC" d="M20 0c11.046 0 20 8.954 20 20s-8.954 20-20 20S0 31.046 0 20 8.954 0 20 0"/><path fill="red" d="M26 6a8 8 0 0 1 8 8v12a8 8 0 0 1-8 8H14a8 8 0 0 1-8-8V14a8 8 0 0 1 8-8z"/><path fill="#fff" d="M17.438 10.833h5.207L30 28.556h-5.504l-4.65-11.768-3.073 7.723h3.654l1.46 4.045H10z"/></g><defs><clipPath id="adbeon_svg-a"><path fill="#fff" d="M0 0h40v40H0z"/></clipPath></defs></svg>
